src/assets/svg/fixed-r.svg

<?xml version="1.0" standalone="no"?><!DOCTYPE svg PUBLIC "-//W3C//DTD SVG 1.1//EN" "http://www.w3.org/Graphics/SVG/1.1/DTD/svg11.dtd"><svg t="1689092992577" class="icon" viewBox="0 0 1024 1024" version="1.1" xmlns="http://www.w3.org/2000/svg" p-id="2775" width="32" height="32" xmlns:xlink="http://www.w3.org/1999/xlink"><title>固定到右侧</title><path d="M665.6 192H409.6a21.333333 21.333333 0 0 0-21.333333 21.333333v605.866667a21.333333 21.333333 0 0 0 21.333333 21.333333h256a21.333333 21.333333 0 0 0 21.333333-21.333333V213.333333a21.333333 21.333333 0 0 0-21.333333-21.333333zM320 192h-238.933333a21.333333 21.333333 0 1 0 0 42.666667h238.933333a21.333333 21.333333 0 1 0 0-42.666667zM81.066667 388.266667h187.733333a21.333333 21.333333 0 1 0 0-42.666667h-187.733333a21.333333 21.333333 0 1 0 0 42.666667zM320 499.2h-238.933333a21.333333 21.333333 0 1 0 0 42.666667h238.933333a21.333333 21.333333 0 1 0 0-42.666667zM268.8 644.266667h-187.733333a21.333333 21.333333 0 1 0 0 42.666666h187.733333a21.333333 21.333333 0 1 0 0-42.666666zM200.533333 797.866667h-119.466666a21.333333 21.333333 0 1 0 0 42.666666h119.466666a21.333333 21.333333 0 1 0 0-42.666666zM959.470933 496.477867l-123.306666-123.2896a21.333333 21.333333 0 1 0-30.165334 30.173866l87.313067 87.296H755.2a21.333333 21.333333 0 1 0 0 42.666667h137.250133L805.998933 619.784533a21.316267 21.316267 0 0 0 15.086934 36.411734c5.461333 0 10.914133-2.082133 15.086933-6.2464l123.298133-123.298134a21.316267 21.316267 0 0 0 0-30.173866z" p-id="2776"></path></svg>

<svg xmlns="http://www.w3.org/2000/svg" width="32" height="32" class="icon" viewBox="0 0 1024 1024"><path d="M665.6 192h-256a21.333 21.333 0 0 0-21.333 21.333V819.2a21.333 21.333 0 0 0 21.333 21.333h256a21.333 21.333 0 0 0 21.333-21.333V213.333A21.333 21.333 0 0 0 665.6 192zM320 192H81.067a21.333 21.333 0 1 0 0 42.667H320A21.333 21.333 0 1 0 320 192zM81.067 388.267H268.8a21.333 21.333 0 1 0 0-42.667H81.067a21.333 21.333 0 1 0 0 42.667zM320 499.2H81.067a21.333 21.333 0 1 0 0 42.667H320a21.333 21.333 0 1 0 0-42.667zm-51.2 145.067H81.067a21.333 21.333 0 1 0 0 42.666H268.8a21.333 21.333 0 1 0 0-42.666zm-68.267 153.6H81.067a21.333 21.333 0 1 0 0 42.666h119.466a21.333 21.333 0 1 0 0-42.666zm758.938-301.39L836.164 373.189A21.333 21.333 0 1 0 806 403.362l87.313 87.296H755.2a21.333 21.333 0 1 0 0 42.667h137.25L806 619.785a21.316 21.316 0 0 0 15.087 36.411 21.284 21.284 0 0 0 15.087-6.246L959.47 526.652a21.316 21.316 0 0 0 0-30.174z"/></svg>
